svgs/sharp-light/peso-sign.svg

<svg xmlns="http://www.w3.org/2000/svg" viewBox="0 0 384 512"><!--! Font Awesome Pro 6.6.0 by @fontawesome - https://fontawesome.com License - https://fontawesome.com/license (Commercial License) Copyright 2024 Fonticons, Inc. --><path d="M48 32L32 32l0 16 0 80L0 128l0 32 32 0 0 64L0 224l0 32 32 0 0 80 0 128 0 16 32 0 0-16 0-112 128 0c65.6 0 122-39.5 146.7-96l45.3 0 0-32-35.2 0c2.1-10.3 3.2-21 3.2-32s-1.1-21.7-3.2-32l35.2 0 0-32-45.3 0C314 71.5 257.6 32 192 32L48 32zm254.9 96L64 128l0-64 128 0c47.4 0 88.7 25.7 110.9 64zM64 160l252 0c2.6 10.2 4 21 4 32s-1.4 21.8-4 32L64 224l0-64zm238.9 96c-22.1 38.3-63.5 64-110.9 64L64 320l0-64 238.9 0z"/></svg>

<svg xmlns="http://www.w3.org/2000/svg" viewBox="0 0 384 512"><!--! Font Awesome Pro 6.4.0 by @fontawesome - https://fontawesome.com License - https://fontawesome.com/license (Commercial License) Copyright 2023 Fonticons, Inc. --><path d="M48 32H32V48v80H0v32H32v64H0v32H32v80V464v16H64V464 352H192c65.6 0 122-39.5 146.7-96H384V224H348.8c2.1-10.3 3.2-21 3.2-32s-1.1-21.7-3.2-32H384V128H338.7C314 71.5 257.6 32 192 32H48zm254.9 96H64V64H192c47.4 0 88.7 25.7 110.9 64zM64 160H316c2.6 10.2 4 21 4 32s-1.4 21.8-4 32H64V160zm238.9 96c-22.1 38.3-63.5 64-110.9 64H64V256H302.9z"/></svg>
